twotone/svg/record_voice_over.svg

<svg xmlns="http://www.w3.org/2000/svg" width="24" height="24"><path fill="none" d="M0 0h24v24H0V0z"/><g fill="currentColor"><g opacity=".3"><circle cx="9" cy="9" r="2"/><path d="M9 17c-2.69 0-5.77 1.28-6 2h12c-.2-.71-3.3-2-6-2z"/></g><path d="M9 13c2.21 0 4-1.79 4-4s-1.79-4-4-4-4 1.79-4 4 1.79 4 4 4zm0-6c1.1 0 2 .9 2 2s-.9 2-2 2-2-.9-2-2 .9-2 2-2zM9 15c-2.67 0-8 1.34-8 4v2h16v-2c0-2.66-5.33-4-8-4zm-6 4c.22-.72 3.31-2 6-2 2.7 0 5.8 1.29 6 2H3zM16.76 5.36l-1.68 1.69c.84 1.18.84 2.71 0 3.89l1.68 1.69c2.02-2.02 2.02-5.07 0-7.27z"/><path d="M20.07 2l-1.63 1.63c2.77 3.02 2.77 7.56 0 10.74L20.07 16c3.9-3.89 3.91-9.95 0-14z"/></g></svg>

<?xml version="1.0" encoding="utf-8"?>
<!-- Generator: Adobe Illustrator 19.1.0, SVG Export Plug-In . SVG Version: 6.00 Build 0)  -->
<svg version="1.1" xmlns="http://www.w3.org/2000/svg" xmlns:xlink="http://www.w3.org/1999/xlink" x="0px" y="0px" width="24px"
	 height="24px" viewBox="0 0 24 24" enable-background="new 0 0 24 24" xml:space="preserve">
<g id="Bounding_Boxes">
	<g id="ui_x5F_spec_x5F_header_copy_3" display="none">
	</g>
	<path fill="none" d="M0,0h24v24H0V0z"/>
</g>
<g id="Duotone" fill="currentColor">
	<g id="ui_x5F_spec_x5F_header_copy_2" display="none">
	</g>
	<g>
		<g opacity="0.3">
			<circle cx="9" cy="9" r="2"/>
			<path d="M9,17c-2.69,0-5.77,1.28-6,2h12C14.8,18.29,11.7,17,9,17z"/>
		</g>
		<g>
			<path d="M9,13c2.21,0,4-1.79,4-4c0-2.21-1.79-4-4-4C6.79,5,5,6.79,5,9C5,11.21,6.79,13,9,13z M9,7c1.1,0,2,0.9,2,2s-0.9,2-2,2
				s-2-0.9-2-2S7.9,7,9,7z"/>
			<path d="M9,15c-2.67,0-8,1.34-8,4v2h16v-2C17,16.34,11.67,15,9,15z M3,19c0.22-0.72,3.31-2,6-2c2.7,0,5.8,1.29,6,2H3z"/>
			<path d="M16.76,5.36l-1.68,1.69c0.84,1.18,0.84,2.71,0,3.89l1.68,1.69C18.78,10.61,18.78,7.56,16.76,5.36z"/>
			<path d="M20.07,2l-1.63,1.63c2.77,3.02,2.77,7.56,0,10.74L20.07,16C23.97,12.11,23.98,6.05,20.07,2z"/>
		</g>
	</g>
</g>
</svg>
